!!!!SEGMENT: pl-wn--mus-100-1-2_zarebski-juliusz--romance-sans-paroles.krn
!!!cenid: 18xx:3559
!!!COM: Zarębski, Juliusz
!!!COM-rismid: pe30020631
!!!CDT:
!!!CNT:
!!!OTL: Romance sans paroles
!!!PDT:
!!!AGN:
!!!SMS-siglum: PL-Wn
!!!SMS-shelfmark: Mus.100/1-2
!!!SMS-shelfwork: W
!!!SMS-variant:
!!!SMS-altvar:
!!!NIFC-rismid:
!!!URL-scan: https://polona.pl/item/romance-sans-paroles,MTE0ODg2MjM0/4/#info:metadata
!!!ONB-nifc:
!!!AIN: 2 piano
!!!key: f
!!!OMD: Andante
**kern	**kern	**dynam
*part2	*part1	*part1
*staff2	*staff1	*
*I"[Piano]	*I"[Piano]	*
*Ipiano	*Ipiano	*
*ICklav	*ICklav	*
*clefF4	*clefG2	*
*k[b-e-a-d-]	*k[b-e-a-d-]	*
*f:	*f:	*
*M6/8	*M6/8	*
=1	=1	=1
*	*	*^
!!LO:TX:t=P:problem:akcent < zamiast >: global
!	!	!	!LO:HP:b=2 
4.F\	4.f/	<	<
8G\L	8g/L	.	.
!	!	!	!LO:HP:b=2 
8A-\	8a-/	[>	[>
8G\J	8g/J	]	]
*	*	*v	*v
=2	=2	=2
8F\L	8f/L	.
8D-\J	8d-/J	.
2C/	2c/	.
=3	=3	=3
*ped	*	*
!LO:N:vis=2	!	!
2.D- 2.DD-\	2.B-< 2.F</	.
*Xped	*	*
=4	=4	=4
!LO:N:vis=2	!LO:N:vis=2	!
2.C 2.CC\	2.c< 2.En</	.
=5	=5	=5
*ped	*	*
!LO:N:vis=2	!LO:N:n=2:vis=2	!
!	!LO:N:n=3:vis=2	!
2.D- 2.DD-\	2.g 2.B-< 2.F</	.
*Xped	*	*
=6	=6	=6
!LO:N:vis=2	!	!
2.C 2.CC\	[4.g [>4.c< [>4.En</	.
.	4g] 4c<] 4E<;/]	.
.	8c/	.
=7||	=7||	=7||
*ped	*	*
!	!LO:S:color=grey	!
!	!LO:TX:b:i:t=dolente	!
8FF\L	(>4f/	mf
8A- 8F\	.	.
8A-J 8F\	8e-/	.
8A-L 8F\	4d-/	.
8A- 8F\	.	.
8A-J 8F\	8c/)	.
*Xped	*	*
=8	=8	=8
!	!LO:S:color=grey	!
8GL 8F 8D-\	(4.c/	.
8G 8F 8D-\	.	.
8GJ 8F 8D-\	.	.
8GL 8F 8D-\	4.B-/)	.
8G 8F 8D-\	.	.
8GJ 8F 8D-\	.	.
!!linebreak:original
=9	=9	=9
*ped	*	*
8CL 8CC\	8g/L	.
!	!LO:TX:b:i:t=agitato	!
8En 8C\	8G/	.
*Xped	*	*
8FJ 8C\	8A-/J	.
8GL 8C\	8B-/L	.
.	32qqc/LLL	.
.	32qqB-/JJJ	.
16FL 16C\	16A-/L	.
16G\	16B-/	.
16A- 16C\	16c/	.
16E\JJ	16G/JJ	.
=10	=10	=10
*ped	*	*
8FF\L	4.A-/	.
8A- 8F\	.	.
8A-J 8F\	.	.
8A-L 8F\	4r	.
8A- 8F\	.	.
*Xped	*	*
8A-J 8F\	8r	.
=11	=11	=11
*ped	*	*
!LO:TX:t=P:problem=mixed beam	!	!
8DD-/L	4G/	.
8G 8F 8D-\	.	.
8GJ 8F 8D-\	8B-/	.
!	!	!LO:HP:t=poco a poco cresc
8GL 8F 8D-\	[4.f/	<
8G 8F 8D-\	.	.
8GJ 8F 8D-\	.	.
=12	=12	=12
!LO:TX:t=P:problem=mixed beam	!	!
8DD-/L	8f/L]	.
8B- 8G 8D-\	8g/	.
*Xped	*	*
8B-J 8G 8D-\	8f/J	.
*ped	*	*
!LO:TX:t=P:problem=mixed beam	!	!
8CC/L	8en/L	.
8B- 8G 8C\	8f/	.
8B-J 8G 8C\	8g/J	.
*Xped	*	*
=13	=13	=13
*ped	*	*
8FL 8FF\	4a- 4A-/	.
8c 8A- 8F\	.	.
8cJ 8A- 8F\	8cc 8c\	.
8cL 8A- 8F\	[4.ff [4.f/	f
8c 8A- 8F\	.	.
8cJ 8A- 8F\	.	.
*Xped	*	*
=14	=14	=14
*ped	*	*
8D-L 8DD-\	8ff]L 8f\]	.
!	!LO:TX:a:i:t=ten.	!
8B- 8G 8F 8D-\	8gg 8g\	.
*Xped	*	*
8B-J 8G 8F 8D-\	8ffJ 8f\	.
*ped	*	*
8CL 8CC\	8eenL 8en/	.
8B- 8G 8C\	8ff 8f/	.
*Xped	*	*
8B-J 8G 8C\	8ggJ 8g/	.
!!linebreak:original
=15	=15	=15
*ped	*	*
!	!LO:N:vis=4.	!
8FF\L	4aa- 4a-\	.
8c 8A- 8F\	.	.
8cJ 8A- 8F\	16bb-LL 16b-\	.
.	16aa-JJ 16a-\	.
8cL 8A- 8F\	4gg 4g\	.
8c 8A- 8F\	.	.
8cJ 8A- 8F\	8ff 8f/	.
*Xped	*	*
=16	=16	=16
*ped	*	*
!	!LO:N:vis=4	!
8BB-L 8BBB-\	4.fff 4.ff\	ff
8d- 8B- 8G 8F\	.	.
8d-J 8B- 8G 8F\	.	.
8d-L 8B- 8G 8F\	4bb- 4b-\	.
8d- 8B- 8G 8F\	.	.
*Xped	*	*
8d-J 8B- 8G 8F\	8ddd- 8dd-\	.
=17	=17	=17
*ped	*	*
!LO:TX:t=P:problem=mixed beam	!	!LO:HP:t=dim.
8C/L	(4ccc 4cc\	>
*Xped	*	*
8a->J 8c>\	.	.
!	!LO:TX:b:i:t=poco a poco riten	!
8r>	8ddd- 8dd-\)	.
*ped	*	*
!LO:TX:t=P:problem=mixed beam	!	!
8C/L	(4bb- 4b-\	.
*Xped	*	*
8g>J 8c>\	.	.
8r>	8ccc 8cc\)	.
=18	=18	=18
*ped	*	*
!LO:TX:t=P:problem=mixed beam	!	!
8C/L	(4aa- 4a-\	.
*Xped	*	*
8f>J 8c>\	.	.
8r>	8bb- 8b-\)	.
*ped	*	*
!LO:TX:t=P:problem=mixed beam	!	!
8C/L	(4gg 4g\	pp
*Xped	*	*
8en>J 8c>\	.	.
!LO:TX:t=P:problem=fermata nad 8r	!	!
8r>;	8ccc 8cc;\)	.
=19	=19	=19
*ped	*	*
!	!LO:TX:a:Bi:t=a tempo	!
8FF\L	4ff 4f/	mf
8A- 8F\	.	.
8A-J 8F\	8ee- 8e-/	.
8A-L 8F\	4dd- 4d-/	.
8A- 8F\	.	.
*Xped	*	*
8A-J 8F\	8cc 8c/	.
!!linebreak:original
=20	=20	=20
8GL 8F 8D-\	4.cc 4.c/	.
8G 8F 8D-\	.	.
8GJ 8F 8D-\	.	.
8GL 8F 8D-\	4.b- 4.B-/	.
8G 8F 8D-\	.	.
8GJ 8F 8D-\	.	.
=21	=21	=21
*ped	*	*
!	!LO:TX:b:i:t=agitato	!LO:DY:b:Bi:t=zf
8BB-L 8BBB-\	4bb- 4b-\	f
8G 8F 8D-\	.	.
8GJ 8F 8D-\	[8gg [8g\	.
8B-L 8G 8F 8D-\	8gg]L 8g\]	.
8B- 8G 8F 8D-\	8ff 8f\	.
*Xped	*	*
8B-J 8G 8F 8D-\	8ggJ 8g\	.
=22	=22	=22
*ped	*	*
!	!LO:N:vis=4	!
8C\L	4.een 4.en/	.
8c 8B- 8G\	.	.
*Xped	*	*
8cJ 8B- 8G\	.	.
*ped	*	*
!	!LO:TX:t=P:problem=podwójny akcent	!
8AAn\L	4ff 4f^>/	.
*Xped	*	*
8cJ 8F\	.	.
!	!LO:ACC:n=2:color=red	!LO:HP:t=decresc.
8r	8ee-X 8e-X/	>
=23	=23	=23
*ped	*	*
!	!LO:N:vis=4	!
8BB-\L	[4.dd- [4.d-/	.
8G 8F 8D-\	.	.
8GJ 8F 8D-\	.	.
*Xped	*	*
8G 8F 8D-\	8dd-]L 8d-/]	.
4r	8g 8G/	.
.	8a-XJ 8A-/	.
=24	=24	=24
!	!	!LO:DY:b:Bi:t=pp.
8GL 8F 8D-\	4.b- 4.B-/	pp
8G 8F 8D-\	.	.
8GJ 8F 8D-\	.	.
8B-L 8G 8C\	4.cc 4.c/	.
8B- 8G 8C\	.	.
8B-J 8G 8C\	.	.
!!pagebreak:original
=25	=25	=25
*ped	*	*
!	!	!LO:HP:b=2 
8r	4.f 4.F/	<
8A-L 8C 8FF/	.	.
*Xped	*	*
8A-J 8C 8FF/	.	.
8r	4.f 4.F/	[
*ped	*	*
8B-L 8D- 8FF/	.	.
*Xped	*	*
!	!	!LO:HP:b=2
8B-J 8D- 8FF/	.	>
=26	=26	=26
*	*	*^
*ped	*	*	*
8r	4.f 4.F/	.	.
8A-L 8C 8FF/	.	.	.
*Xped	*	*	*
8A-J 8C 8FF/	.	.	.
*ped	*	*	*
!	!	!	!LO:HP:b=2
8BBnL 8DDn\	16F/LL	]<	<
.	16a-/J	.	.
16F\L	8g/	.	.
16Bn\J	.	.	.
*Xped	*	*	*
8dn\J	8f/J	[	[
*	*	*v	*v
=27	=27	=27
*ped	*	*
(8E-L 8EE-/	[4.e-/	.
8c 8E-/	.	.
8e-J 8A-/)	.	.
4.c 4.E-\	(16e-/LL]	<
.	16a-/	.
.	16cc/	.
.	16ff/	[
.	16ee-/	>
.	16cc/JJ)	]]
*Xped	*	*
=28	=28	=28
*ped	*	*
!	!LO:N:vis=4	!
(8E-L 8EE-\	[4.b-/	.
8B- 8E-\	.	.
8d-J 8G\)	.	.
4.e-> 4.B->\	(<16b-/LL]	<
.	16an/	.
.	16b-/	.
.	16cc/	.
.	16dd-/	[>
.	16g/JJ)	]]
*Xped	*	*
=29	=29	=29
*ped	*	*
(8AA-L 8AAA-\	[4.a-/	.
8G-X 8AA-\	.	.
8A-J 8E-\)	.	.
!LO:N:vis=4	!	!
4.c 4.G-\	(16a-\LL]	.
!	!	!LO:HP:t=cresc.
.	16cc\	<
.	16ee-\	.
.	16gg-X\	.
.	16ff\	.
.	16een\JJ)	.
*Xped	*	*
!!linebreak:original
=30	=30	=30
*ped	*	*
!	!LO:TX:b:i:t=stretto	!LO:DY:rj
8D-L 8DD-\	[8ffL [8f\	f
*	*Xtuplet	*
!	!LO:TUP:r=8:problem=klamra łukowa	!
8d- 8F\	24ff]L 24f\]	.
.	24a-\	.
.	24dd-\	.
*Xped	*	*
!	!LO:TUP:r=8:problem=klamra łukowa	!
8fJ 8A-\	24ff\	.
.	24aa-\	.
.	24ddd-\JJ	.
*ped	*	*
8DnL 8DDn\	(16fffLL 16ff\	<
.	16ff 16f\)	.
*	*tuplet	*
*	*Xbrackettup	*
!	!LO:TUP:a:problem=klamra łukowa	!
8A- 8D\	24een 24en\	.
.	24ff 24f\	.
.	24gg 24g\	.
*Xped	*	*
!	!LO:TX:a:i:t=ten.	!
8BnJ 8F\	(16bb-X 16b-\	.
.	16aa-JJ 16a-\)	[[
=31	=31	=31
*ped	*	*
!	!LO:N:vis=4	!LO:HP:t=dim.
8E-L 8EE-\	[4.cc [4.c/	>
8c 8E-\	.	.
8e-J 8A-\	.	.
4.c 4.E-\	(16cc]LL 16c/]	.
!	!LO:TX:b:i:t=ritenuto	!
.	16ff 16f/	.
.	16ee- 16e-/	.
.	16ff 16f/	.
.	16ee- 16e-/	.
*Xped	*	*
.	16ccJJ 16c/)	.
=32	=32	=32
*ped	*	*
8E-L 8EE-\	4b- 4B-/	.
8d- 8G\	.	.
8B-J 8E-\	16ccLL 16c/	.
*Xped	*	*
.	16dd-JJ 16d-/	.
4r	(16gLL 16G/	.
.	16a- 16A-/	.
.	16f#X 16F#X/	.
.	(16g 16G/	.
8r	16cc 16c;/)	.
.	16b-JJ 16B-/)	.
=33	=33	=33
(16cLL 16E-\	4.a- 4.A-/	.
16B-\	.	.
!	!	!LO:DY:b:Bi:t=p.
16A-\	.	p
16G\	.	.
16F\	.	.
16E-\JJ)	.	.
*ped	*	*
8d-L 8G 8E- 8AA-\	(16ee-LL 16e-\	.
.	16ff 16f\	.
8AA-\	16gg 16g\	.
.	16aa- 16a-\	.
*Xped	*	*
16F\L	16bb- 16b-\	.
16G\JJ	16ddd-JJ 16dd-\)	.
!!linebreak:original
=34	=34	=34
*ped	*	*
16cLL 16E- 16AA-\	4.ccc 4.cc\	.
16B-\	.	.
16A-\	.	.
16c\	.	.
16f>\	.	.
*Xped	*	*
16e->\JJ	.	.
!	!LO:S:color=grey	!
16d-\LL	(16bb-LL 16b-\	.
16c\	16ccc 16cc\	.
!	!LO:TX:b:i:t=rit. molto	!
16B-\	16ddd- 16dd-\	.
16A-\	16eee- 16ee-\	.
16G\	16fff 16ff\	.
16F\JJ	16gggJJ 16gg\	.
=35	=35	=35
*ped	*	*
!LO:N:vis=4	!	!LO:DY:b:Bi:t=p.
4.c 4.E- 4.AA-\	4.aaa- [>4.aa-\)	p
*clefG2	*	*
*Xped	*	*
!LO:S:color=grey	!	!
(16cc/LL	16aa-\LL]	.
!	!LO:S:color=grey	!
16a-/	(16ee-\	.
16e-/	16cc\	.
16d-/	16b-\	.
16c/	16a-\	.
16d-/JJ)	16b-\JJ)	.
=36	=36	=36
*ped	*	*
!LO:S:color=grey	!LO:S:color=grey	!
(16e-LL 16A-/	(16ccLL 16a-\	.
16dd-/JJ)	16ff\JJ)	.
*Xped	*	*
[4cc\	[4ee-\	.
16cc\LL]	16ee-\LL]	.
!LO:S:color=grey	!LO:S:color=grey	!
(16cc\	(16ee-\	.
16a-\	16cc\	.
16d-\	16b-\	.
16c\	16a-\	.
16d-\JJ)	16b-\JJ)	.
*clefF4	*	*
=37	=37	=37
4A-^\	(4cc^\	.
!	!	!LO:DY:b:Bi:t=pp.
8c 8AA-\	8a- 8e-/)	pp
4A-^\	(4cc\	.
8c 8AA-\	8a- 8e-/)	.
=38	=38	=38
*ped	*	*
8C 8CC/	8ccc 8cc\	ff
*Xped	*	*
.	.	.
!	!LO:TX:b:i:t=sec.	!
8B- 8G 8C\	8cc 8g 8c/	.
8r	8r	.
4r	4r	.
8r;	8r;	.
!!linebreak:original
=39	=39	=39
*M6/8	*M3/4	*
*ped	*	*
!	!LO:TX:b:i:t=molto agitato	!
!	!LO:TX:a:Bi:t=Allegro vivace	!
(8F\L	4ccc 4cc\	f <
8a- 8f\	.	.
*Xped	*	*
8c\J)	4dddn 4ddn\	.
*ped	*	*
(8A-\L	.	.
8a- 8f\	8.eeenL 8.een\	.
*Xped	*	*
8c\J)	.	.
.	16fffJk 16ff\	[[
=40	=40	=40
*ped	*	*
8G\L	4fff 4ff\	>
8b-> 8d->\	.	.
*Xped	*	*
8c>\J	4eeen 4een\	.
*ped	*	*
!LO:TX:t=P:problem=mixed beam	!	!
8C/L	.	.
!	!LO:N:vis=8	!
8en> 8B-\	8.ddd-L 8.dd-/	.
*Xped	*	*
8G\J	.	.
.	16cccJk 16cc/	]]
=41	=41	=41
*ped	*	*
8F\L	4ccc 4cc\	<
8a-> 8f>\	.	.
*Xped	*	*
!	!LO:ACC:n=2:color=red	!
8c>\J	4dddn 4ddn\	.
*ped	*	*
8F\L	.	.
!	!LO:ACC:n=2:color=red	!
!	!LO:N:vis=8	!
8a-> 8f>\	8.eeenL 8.een\	.
*Xped	*	*
8c>\J	.	.
.	16fffJk 16ff\	[[
=42	=42	=42
*ped	*	*
8G\L	4fff 4ff\	>
!LO:ACC:n=2:color=red	!	!
8b-> 8dn>\	.	.
*Xped	*	*
!	!LO:ACC:n=2:color=red	!
8c>\J	4eeen 4een\	.
*ped	*	*
8C\L	.	.
!LO:ACC:n=1:color=red	!LO:N:vis=8	!
8en> 8c\	8.ddd-L 8.dd-\	.
*Xped	*	*
8G\J	.	.
.	16cccJk 16cc\	]]
=43	=43	=43
*ped	*	*
!LO:TX:t=P:problem=mixed beam	!	!
8F/L	4ccc 4cc/	.
8a-> 8f>\	.	.
*Xped	*	*
!	!LO:TX:a:i:t=ten.	!
8c>\J	4aaa- 4aa-\	.
*ped	*	*
8D-\L	.	.
!	!LO:N:vis=8	!
8f> 8d->\	8.aa-L 8.a-/	.
*Xped	*	*
8A-\J	.	.
.	16bb-Jk 16b-/	.
=44	=44	=44
*ped	*	*
!	!LO:TX:b:i:t=stretto	!
!LO:TX:t=P:problem=mixed beam	!LO:ACC:n=2:color=red	!
8C\L	4bbn 4bn/	.
8a-> 8f>\	.	.
8c>\J	4ccc 4cc\	.
!LO:TX:t=P:problem=mixed beam	!	!
8C\L	.	.
!	!LO:N:vis=8	!
8a-> 8f>\	8.ddd-L 8.dd-/	.
8c>\J	.	.
*Xped	*	*
.	16cccJk 16cc/	.
!!linebreak:original
=45	=45	=45
*ped	*	*
!LO:TX:t=P:problem=mixed beam	!	!
8C/L	4ccc 4cc\	.
8f> 8d->\	.	.
!	!LO:ACC:color=red	!
8A-\J	4bb-X 4b-X\	.
!LO:TX:t=P:problem=mixed beam	!	!
8C/L	.	.
!	!LO:N:vis=8	!
8f> 8d->\	8.aa-L 8.a-/	.
8A-\J	.	.
.	16bb-Jk 16b-/	.
*Xped	*	*
=46	=46	=46
*ped	*	*
!	!LO:TX:b:i:t=rit.	!
!	!LO:ACC:n=2:color=red	!
8C\L	4bbn 4bn\	.
8en> 8B-\	.	.
8G\J	4ccc 4cc\	.
8C\L	.	.
8en> 8B-\	8.cccL 8.cc/	.
*Xped	*	*
8G\J	.	.
.	16ccJk 16c/	.
=47	=47	=47
*ped	*	*
!	!LO:TX:b:i:t=a tempo	!
8F\L	4ccc 4cc\	.
8a-> 8f>\	.	.
*Xped	*	*
!	!LO:ACC:n=2:color=red	!
8c>\J	4dddn 4ddn\	.
*ped	*	*
!LO:TX:t=P:problem=mixed beam	!	!
8A-/L	.	.
!	!LO:ACC:n=2:color=red	!
!	!LO:N:vis=8	!
8a-> 8f>\	8.eeenL 8.een/	.
*Xped	*	*
8c>\J	.	.
.	16fffJk 16ff/	.
=48	=48	=48
*ped	*	*
!	!LO:TX:t=P:problem=extended text	!LO:HP:t=poco a poco cresc._:problem=dynamics with extention lines
8G\L	4fff 4ff\	<
8b-> 8d->\	.	.
*Xped	*	*
!	!LO:ACC:n=2:color=red	!
8c>\J	4eeen 4een\	.
*ped	*	*
8En\L	.	.
!	!LO:ACC:color=red	!
!	!LO:N:vis=8	!
8g> 8B->\	8.ddd-XL 8.dd-X/	.
*Xped	*	*
8c>\J	.	.
.	16cccJk 16cc/	.
=49	=49	=49
*ped	*	*
8F\L	4ccc 4cc\	.
8a-> 8f>\	.	.
*Xped	*	*
!	!LO:ACC:color=red	!
8c>\J	4dddn 4ddn\	.
*ped	*	*
8A-\L	.	.
!	!LO:N:vis=8	!
!	!LO:SIC:v:n=2:s=8.een/	!
8a-> 8f>\	8.eeenL 8.ee-/	.
*Xped	*	*
8c>\J	.	.
.	16fffJk 16ff/	.
=50	=50	=50
*pe	*	*
8G\L	4fff 4ff\	.
8b-> 8d->\	.	.
*Xped	*	*
!	!LO:ACC:n=2:color=red	!
8c>\J	4eeen 4een\	.
*ped	*	*
8En\L	.	.
!	!LO:ACC:color=red	!
!	!LO:N:vis=8	!
8g> 8B->\	8.ddd-XL 8.dd-X/	.
*Xped	*	*
8c>\J	.	.
.	16cccJk 16cc/	.
!!pagebreak:original
=51	=51	=51
*ped	*	*
8F\L	4ccc 4cc\	f
8an> 8f>\	.	.
*Xped	*	*
8c>\J	4fff 4ff\	.
*ped	*	*
8E-\L	.	.
!	!LO:N:vis=8	!
!	!LO:ACC:n=2:color=red	!
8e-> 8c>\	8.eeenL 8.een\	.
*Xped	*	*
8An\J	.	.
!	!LO:TX:b:i:t=stretto	!
.	16fffJk 16ff\	.
=52	=52	=52
*ped	*	*
!	!LO:ACC:n=2:color=red	!
8D-\L	4ggg-X 4gg-X\	.
8f> 8d->\	.	.
!	!	!LO:DY:t=sempre piu %s 
8B-\J	4fff 4ff\	f
8D-\L	.	.
!	!LO:N:vis=8	!
!	!LO:ACC:n=2:color=red	!
8f> 8d->\	8.eeenL 8.een\	.
*Xped	*	*
8B-\J	.	.
.	16fffJk 16ff\	.
=53	=53	=53
*ped	*	*
!	!LO:ACC:n=2:color=red	!
8C\L	4ggg-X 4gg-X\	.
8e-> 8An\	.	.
8F\J	4fff 4ff\	.
8C\L	.	.
!	!LO:N:vis=8	!
!	!LO:ACC:n=2:color=red	!
8e-> 8A\	8.eeenL 8.een\	.
*Xped	*	*
8F\J	.	.
.	16fffJk 16ff\	.
=54	=54	=54
*ped	*8va	*
!	!LO:TX:a:Bi:t=Lento.	!
!	!LO:T:color=red	!
!	!LO:N:n=2:vis=2	!
8BB-\L	[2.dddd- [2.ddd-;\	fff
8d- 8B-\	.	.
8F\	.	.
8d-\	.	.
8B-\	.	.
8F\J	.	.
=55	=55	=55
!	!LO:TX:a:i:t=a tempo	!
8BB-\L	4dddd-] 4ddd-/]	.
8d- 8B-\	.	.
8F\J	4bbb- 4bb-/	.
8d-\L	.	.
*	*X8va	*
!	!LO:N:vis=8	!
8B-\	8.gggL 8.gg/	.
8F\J	.	.
!	!	!LO:HP:t=ralen. _ _ e molto dim.
.	16fffJk 16ff/	>
=56	=56	=56
8BB-\L	4ddd- 4dd-\	.
8d- 8G\	.	.
8F\J	4bb- 4b-\	.
8d-\L	.	.
!	!LO:N:vis=8	!
8B-\	8.ggL 8.g/	.
8G\J	.	.
*Xped	*	*
.	16ffJk 16f/	.
!!linebreak:original
=57	=57	=57
*ped	*	*
!	!LO:ACC:n=2:color=red	!
8C\L	4een 4en/	.
8c 8B-\	.	.
8G\J	4ccc 4cc\	.
8C\L	.	.
!	!LO:TX:b:t=riten.:dur=10q:ext=ud:problem=text with extention lines	!
!	!LO:N:vis=8	!
8c 8B-\	8.ggL 8.g/	.
*Xped	*	*
8G\J	.	.
.	16aa-Jk 16a-/	.
=58	=58	=58
*ped	*	*
!	!LO:T:color=red	!
!	!LO:N:vis=2	!
8FF\L	[2.ff [2.f/	.
8A- 8F\	.	pp
8C\J	.	.
8FF\L	.	.
8A- 8F\	.	.
*Xped	*	*
8C\J	.	.
=59	=59	=59
*ped	*	*
8FF\L	4ff] 4f\]	.
8B- 8G\	.	.
8C\J	4cc 4c/	.
8FF\L	.	.
!	!LO:N:vis=8	!
8B- 8G\	8.aa-L 8.a-\	.
*Xped	*	*
8C\J	.	.
.	16ggJk 16g\	.
=60	=60	=60
*ped	*	*
!	!LO:TX:b:i:t=morendo	!
!	!LO:N:vis=2	!
8FF\L	2.ff 2.f/	.
8A- 8F\	.	.
8C\J	.	.
8FF\L	.	.
8A- 8F\	.	.
*Xped	*	*
8C\J	.	.
=61	=61	=61
*ped	*	*
!	!LO:N:vis=2	!
8FF\L	2.fff 2.ff\	ppp
8A- 8F\	.	.
8C\J	.	.
8FF\L	.	.
8A- 8F\	.	.
8C\J	.	.
=62	=62	=62
*^	*	*
!LO:TX:a:i:t=a tempo	!	!	!LO:HP:b=2 
8FF/L	8FF^\	2.r	<
8A- 8F/	4ryy	.	.
8C/J	.	.	.
8EE-/L	8EE-^\	.	.
8A- 8F/	4ryy	.	.
8C/J	.	.	.
=63	=63	=63	=63
!LO:TX:b:i:t=molto riten. e cresc	!	!	!
8DD-/L	8DD-^\	2.r	.
8A- 8F/	4ryy	.	.
8D-/J	.	.	.
8CC/L	8CC^\	.	.
8A- 8F/	4ryy	.	.
*Xped	*	*	*
8C/J	.	.	[[
*v	*v	*	*
!!linebreak:original
=64	=64	=64
*M3/4	*M3/4	*
*ped	*	*
!	!LO:TX:a:i:t=a tempo	!
4dn 4A- 4F 4BBn\	8fffL 8ff\	ff
.	8aaa-\J	.
*Xped	*	*
*clefG2	*	*
8een\L	8eeen\L	.
8ff\	8fff\	.
8gg\	8ggg\	.
8ff\J	8fff\J	.
=65	=65	=65
!LO:TUP:a:problem=klamra łukowa	!LO:TUP:a:problem=klamra łukowa	!
12eenL 12b- 12g 12c\	12eeen\L	.
12gg\	12ggg\	.
12dd-\J	12ddd-\J	.
!LO:TUP:a:problem=klamra łukowa	!LO:TUP:a:problem=klamra łukowa	!
12cc\L	12ccc\L	.
12ee\	12eee\	.
12b-\J	12bb-\J	.
!LO:TUP:b:problem=klamra łukowa	!LO:TUP:a:problem=klamra łukowa	!
12a-/L	12aa-\L	.
12cc/	12ccc\	.
12g/J	12gg\J	.
=66	=66	=66
8fL 8d- 8Bn 8A-/	8ff\L	.
8a-/J	8aa-\	.
8en/L	8een\	.
8f/	8ff\	.
8g/	8gg\	.
8f/J	8ff\J	.
=67	=67	=67
*Xtuplet	*	*
!	!LO:TUP:a:problem=klamra łukowa	!
12enL 12B- 12G 12C/	12een\L	.
12g/	12gg\	.
12d-/J	12dd-\J	.
!	!LO:TUP:a:problem=klamra łukowa	!
12c/L	12cc\L	.
!	!	!LO:DY:t=sempre %s
12enX/	12ee\	ff
12B-/J	12b-\J	.
*clefF4	*Xtuplet	*
!	!LO:TUP:b:problem=klamra łukowa	!
12A-\L	12a-/L	.
12c\	12cc/	.
12G\J	12g/J	.
=68	=68	=68
12D-\L	12g/L	.
12F\	12d-/	.
12A-\J	12f/J	.
12d-\L	(12a-\L	<
12A-\	12dd-\	.
12F\J	12ff\J	.
12D-\L	12ff\L	.
12F\	12gg\	.
12A-\J	12aa-\J)	[
=69	=69	=69
!	!LO:TX:t=P:problem="łamany" łuk	!
12C\L	(12g/L	.
12F\	12c/	.
12A-\J	12en/J	.
12c\L	12f/L	<
12A-\	12a-/	.
12F\J	12cc/J	.
12C\L	12ff\L	.
12F\	12gg\	.
12A-\J	12aa-\J)	[[
!!linebreak:original
=70	=70	=70
12BBn\L	(<12g/L	.
12F\	12dn/	.
12A-\J	12f/J	.
12d-\L	12a-/L	.
12A-\	12bn/	<
12F\J	12dd-/J	.
12BBnX\L	12ff\L	.
12F\	12gg\	.
12A-\J	12aa-\J)	[[
=71	=71	=71
12C\L	(12g/L	.
12F\	12c/	.
12A-\J	12en/J	.
12c\L	12f/L	<
12A-\	12a-/	.
12F\J	12cc/J	.
12C\L	12ff\L	.
12F\	12gg\	.
12A-\J	12aa-\J)	[[
=72	=72	=72
4D- 4DD-/	(12g/L	.
.	12d-X/	.
.	12f/J	.
4r	12a-\L	<
.	12dd-\	.
.	12ff\J	.
4r	12aa-\L	.
.	12ddd-\	.
.	12fff\J	[[
=73	=73	=73
4r	12aaa-\L	.
.	12fff\	.
.	12ddd-\J	.
4r	12aa-\L	.
.	12ff\	.
.	12dd-\J	.
4r	12a-/L	.
.	12f/	.
.	12d-/J	.
=74	=74	=74
4r	12a-/L	.
.	12f/	.
.	12d-/J)	.
(12A-/L	4r	.
12F/	.	.
12D-/J	.	.
12AA-/L	4r	.
12FF/	.	.
12DD-/J)	.	.
=75	=75	=75
*ped	*	*
!	!	!LO:DY:b=2:t=zf
4DD-/	4r	sf
!	!LO:TX:a:i:t=Piu lento	!
4d- 4A- 4D-/	(4gg 4f^\	.
*Xped	*	*
4d- 4A- 4D-\	4ff 4f\)	p
=76	=76	=76
*ped	*	*
4BB-/	4r	.
4d- 4G 4F\	(>4ee- 4f^>/	.
*Xped	*	*
4d- 4G 4F\	4dd- 4f/)	.
!!pagebreak:original
=77	=77	=77
*ped	*	*
4C\	4r	.
4c 4A- 4F\	4bn 4f\	.
*Xped	*	*
!	!LO:TX:b:i:t=riten.	!
4c 4A- 4F\	4cc 4f/	.
=78	=78	=78
*ped	*	*
4CC/	8r	.
.	8c/L	.
4c 4B-X 4G\	8Bn/	.
.	8c/	.
4en 4B- 4G 4C;\	8.a-;/	.
.	16g/Jk	.
*Xped	*	*
=79	=79	=79
*M6/8	*M6/8	*
*ped	*	*
!LO:TX:t=P:problem=mixed beam	!LO:TX:a:i:t=tempo primo.	!
8FF/L	4f/	.
8A- 8F\	.	.
8A-J 8F\	8e-/	.
!	!LO:TX:b:i:t=semper legato.	!
8A-L 8F\	4d-/	.
8A- 8F\	.	.
8A-J 8F\	8c/	.
*Xped	*	*
=80	=80	=80
*ped	*	*
8GL 8F 8D-\	4.c/	.
8G 8F 8D-\	.	.
8GJ 8F 8D-\	.	.
8GL 8F 8D-\	4.B-/	.
8G 8F 8D-\	.	.
*Xped	*	*
8GJ 8F 8D-\	.	.
=81	=81	=81
*ped	*	*
!LO:TX:t=P:problem=mixed beam	!	!
8CC/L	8g/L	.
8En 8C\	8G/	.
8FJ 8C\	8A-/J	.
8GL 8C\	8B-/L	.
.	16qqc/LL	.
.	16qqB-/JJ	.
16F\L	16A-/L	.
16G\	16B-/	.
16A-\	16c/	.
*Xped	*	*
16E\JJ	16G/JJ	.
!!linebreak:original
=82	=82	=82
*ped	*	*
!	!LO:N:vis=8.	!
8FF\L	8A-/	.
8A- 8F\	4r	.
8A-J 8F\	.	.
8A-L 8F\	4r	.
8A- 8F\	.	.
*Xped	*	*
8A-J 8F\	8r	.
=83	=83	=83
*ped	*	*
8DD-\L	4G/	.
8G 8F 8D-\	.	.
8GJ 8F 8D-\	8B-/	.
8GL 8F 8D-\	[4.f/	.
8G 8F 8D-\	.	.
*Xped	*	*
!	!LO:TX:t=P:problem=extended text	!LO:HP:t=poco a poco cresc_:problem=dynamics with extention lines
8GJ 8F 8D-\	.	<
=84	=84	=84
*ped	*	*
8DD-\L	8f/L]	.
8B- 8G 8F 8D-\	8g/	.
*Xped	*	*
8B-J 8G 8F 8D-\	8f/J	.
*ped	*	*
!LO:TX:t=P:problem=mixed beam	!	!
8CC/L	8en/L	.
8B- 8G 8C\	8f/	.
*Xped	*	*
8B-J 8G 8C\	8g/J	.
=85	=85	=85
*ped	*	*
8FL 8FF\	4a- 4A-/	.
8c 8A- 8F\	.	.
8cJ 8A- 8F\	8cc 8c/	.
8cL 8A- 8F\	[4.ff [4.f/	.
8c 8A- 8F\	.	.
*Xped	*	*
8cJ 8A- 8F\	.	.
!!linebreak:original
=86	=86	=86
*ped	*	*
8D-L 8DD-\	8ff]L 8f/]	.
8B- 8G 8F 8D-\	8gg 8g/	.
*Xped	*	*
8B-J 8G 8F 8D-\	8ffJ 8f/	.
*ped	*	*
!	!LO:SIC:v:n=2:s=8en/	!
8CL 8CC\	8eenL 8e-/	.
8B- 8G 8C\	8ff 8f/	.
*Xped	*	*
8B-J 8G 8C\	8ggJ 8g/	.
=87	=87	=87
*ped	*	*
8FL 8FF\	4aa- 4a-\	f
8c 8A- 8F\	.	.
!	!LO:TX:b:i:t=agitato	!
8cJ 8A- 8F\	16bb-LL 16b-\	.
.	16aa-JJ 16a-\	.
8cL 8A- 8F\	4gg 4g\	.
8c 8A- 8F\	.	.
*Xped	*	*
8cJ 8A- 8F\	8ff 8f\	.
=88	=88	=88
*ped	*	*
8D-L 8BB- 8DD- 8BBB-\	4.fff 4.ff\	.
8B- 8G 8F 8D-\	.	.
8B-J 8G 8F 8D-\	.	.
8B-L 8G 8F 8D-\	4bb- 4b-\	.
8B- 8G 8F 8D-\	.	.
*Xped	*	*
8B-J 8G 8F 8D-\	8ddd- 8dd-\	.
=89	=89	=89
*ped	*	*
8C\L	(4ccc 4cc\	<
*Xped	*	*
8a->J 8c>\	.	.
8r>	8ddd- 8dd-\)	[
*ped	*	*
8C\L	(<4bb- 4b-/	<
*Xped	*	*
8g>J 8c>\	.	.
8r>	8ccc 8cc/)	[
!!linebreak:original
=90	=90	=90
*ped	*	*
8C\L	(4aa- 4a-\	<
*Xped	*	*
8f>J 8c>\	.	.
!	!LO:TX:b:i:t=riten.	!
8r>	8bb- 8b-\)	[
*ped	*	*
8C\L	(4gg 4g\	.
*Xped	*	*
8en>J 8c>\	.	.
8r>	8ccc 8cc;\)	.
=91	=91	=91
*ped	*	*
!LO:TX:t=P:problem=mixed beam	!	!
8FF/L	4ff 4f/	.
!	!LO:TX:b:i:t=a tempo	!
8A- 8F\	.	.
8A-J 8F\	8ee- 8e-/	.
8A-L 8F\	4dd- 4d-/	.
8A- 8F\	.	.
*Xped	*	*
8A-J 8F\	8cc 8c/	.
=92	=92	=92
*ped	*	*
8GL 8F 8D-\	4.cc 4.c/	.
8G 8F 8D-\	.	.
8GJ 8F 8D-\	.	.
8GL 8F 8D-\	4.b- 4.B-/	.
8G 8F 8D-\	.	.
*Xped	*	*
8GJ 8F 8D-\	.	.
=93	=93	=93
*ped	*	*
8D-L 8DD-\	4bb- 4b-\	.
!	!LO:TX:b:i:t=agitato	!
8B- 8G 8F 8D-\	.	.
8B-J 8G 8F 8D-\	[8gg [8g\	.
8B-L 8G 8F 8D-\	8gg]L 8g\]	.
8B- 8G 8F 8D-\	8ff 8f\	.
*Xped	*	*
8B-J 8G 8F 8D-\	8ggJ 8g\	.
!!linebreak:original
=94	=94	=94
*ped	*	*
!	!LO:N:vis=4	!
!	!LO:SIC:v:n=2:s=4.en/	!
8C\L	4.een 4.e-/	.
*Xped	*	*
8c 8B- 8G\	.	.
8cJ 8B- 8G\	.	.
*ped	*	*
!LO:TX:t=P:problem=mixed beam	!	!
8AAn/L	4ff 4f/	.
*Xped	*	*
8cJ 8F\	.	.
8r	8ee-X 8e-/	.
=95	=95	=95
*ped	*	*
!	!LO:N:vis=4	!
8BB-\L	[4.dd- [4.d-/	.
8G 8F 8D-\	.	.
8GJ 8F 8D-\	.	.
*Xped	*	*
!	!	!LO:HP:t=dim.
8G 8F 8D-\	(8dd-]L 8d-/]	>
4r	8g 8G/	.
.	8a-J 8A-/)	.
=96	=96	=96
*ped	*	*
8GL 8F 8D-\	4.b- 4.B-/	<
8G 8F 8D-\	.	.
*Xped	*	*
8GJ 8F 8D-\	.	.
*ped	*	*
8B-L 8G 8C\	4.cc 4.c/	[
8B- 8G 8C\	.	.
*Xped	*	*
8B-J 8G 8C\	.	.
=97	=97	=97
*ped	*	*
8r	4.f 4.F/	p
!	!	!LO:HP:b=2
8A-L 8C 8FF\	.	<
*Xped	*	*
8A-J 8C 8FF\	.	.
*ped	*	*
8r	4.f 4.F/	.
8B-L 8D- 8FF\	.	.
*Xped	*	*
8B-J 8D- 8FF\	.	[
=98	=98	=98
*ped	*	*
!	!LO:TX:b:i:t=ritenuto	!
8r	4.f 4.F/	.
!	!	!LO:HP:b=2
8A-L 8C 8FF\	.	>
*Xped	*	*
8A-J 8C 8FF\	.	.
*ped	*	*
8r	4.f 4.F/	.
8GL 8C 8FF\	.	.
*Xped	*	*
8GJ 8C 8FF\	.	]]
=99	=99	=99
4.A- 4.C 4.FF/	4.f 4.F/	.
*ped	*	*
!LO:N:n=2:vis=4	!	!
4.a- 4.c 4.F;\	4.ff 4.f/	p
*Xped	*	*
.	.	.
=100	=100	=100
2.r;	2.r;	.
==	==	==
*-	*-	*-
!!!system-decoration: {(s1,s2)}
!!!RDF**kern: > = above
!!!RDF**kern: < = below
!!!ENC: Katarzyna Serwa
!!!END: 2022-02-12
!!!ENC: Andrzej Kubiczek
!!!END: 2022-01-31
